svgs/thin/objects-align-center-horizontal.svg

<svg xmlns="http://www.w3.org/2000/svg" viewBox="0 0 512 512"><!--! Font Awesome Pro 6.6.0 by @fontawesome - https://fontawesome.com License - https://fontawesome.com/license (Commercial License) Copyright 2024 Fonticons, Inc. --><path d="M264 8c0-4.4-3.6-8-8-8s-8 3.6-8 8l0 56L80 64c-26.5 0-48 21.5-48 48l0 64c0 26.5 21.5 48 48 48l168 0 0 64-104 0c-26.5 0-48 21.5-48 48l0 64c0 26.5 21.5 48 48 48l104 0 0 56c0 4.4 3.6 8 8 8s8-3.6 8-8l0-56 104 0c26.5 0 48-21.5 48-48l0-64c0-26.5-21.5-48-48-48l-104 0 0-64 168 0c26.5 0 48-21.5 48-48l0-64c0-26.5-21.5-48-48-48L264 64l0-56zm-8 296l112 0c17.7 0 32 14.3 32 32l0 64c0 17.7-14.3 32-32 32l-112 0-112 0c-17.7 0-32-14.3-32-32l0-64c0-17.7 14.3-32 32-32l112 0zm0-96L80 208c-17.7 0-32-14.3-32-32l0-64c0-17.7 14.3-32 32-32l352 0c17.7 0 32 14.3 32 32l0 64c0 17.7-14.3 32-32 32l-176 0z"/></svg>

<svg xmlns="http://www.w3.org/2000/svg" viewBox="0 0 512 512"><!--! Font Awesome Pro 6.4.2 by @fontawesome - https://fontawesome.com License - https://fontawesome.com/license (Commercial License) Copyright 2023 Fonticons, Inc. --><path d="M264 8c0-4.4-3.6-8-8-8s-8 3.6-8 8V64L80 64c-26.5 0-48 21.5-48 48v64c0 26.5 21.5 48 48 48H248v64H144c-26.5 0-48 21.5-48 48v64c0 26.5 21.5 48 48 48H248v56c0 4.4 3.6 8 8 8s8-3.6 8-8V448H368c26.5 0 48-21.5 48-48V336c0-26.5-21.5-48-48-48H264V224H432c26.5 0 48-21.5 48-48V112c0-26.5-21.5-48-48-48L264 64V8zm-8 296H368c17.7 0 32 14.3 32 32v64c0 17.7-14.3 32-32 32H256 144c-17.7 0-32-14.3-32-32l0-64c0-17.7 14.3-32 32-32H256zm0-96L80 208c-17.7 0-32-14.3-32-32l0-64c0-17.7 14.3-32 32-32l352 0c17.7 0 32 14.3 32 32v64c0 17.7-14.3 32-32 32H256z"/></svg>
